svg_80x80/bun.svg

<svg xmlns="http://www.w3.org/2000/svg" xmlns:xlink="http://www.w3.org/1999/xlink" version="1.1" viewBox="0 0 80 80">
    <path style=" stroke:none;fill-rule:nonzero;fill:rgb(0%,0%,0%);fill-opacity:1;" d="M 228.746094 74.625 C 228.222656 73.992188 227.683594 73.378906 227.128906 72.78125 C 226.578125 72.191406 226.058594 71.527344 225.507812 70.9375 C 224.957031 70.347656 224.4375 69.683594 223.886719 69.09375 C 223.335938 68.503906 222.816406 67.839844 222.265625 67.25 C 221.714844 66.660156 221.195312 65.996094 220.648438 65.40625 C 220.09375 64.816406 219.578125 64.152344 219.027344 63.5625 C 218.476562 62.972656 217.957031 62.308594 217.40625 61.722656 C 233.480469 79.695312 242.6875 104.144531 243.039062 129.78125 C 243.039062 190.875 188.53125 240.574219 121.519531 240.574219 C 83.992188 240.574219 50.421875 224.980469 28.09375 200.535156 L 31.335938 204.222656 L 32.953125 206.0625 L 34.574219 207.910156 L 36.195312 209.75 L 39.4375 213.4375 C 61.730469 238.917969 96.050781 255.324219 134.480469 255.324219 C 201.496094 255.324219 256 205.621094 256 144.714844 C 256 118.683594 246.148438 94.019531 228.746094 74.625 Z M 228.746094 74.625 "/>
    <path style=" stroke:none;fill-rule:nonzero;fill:rgb(98.431373%,94.117647%,87.45098%);fill-opacity:1;" d="M 234.9375 129.78125 C 234.9375 185.859375 184.15625 231.320312 121.519531 231.320312 C 58.878906 231.320312 8.101562 185.859375 8.101562 129.78125 C 8.101562 95.011719 27.542969 64.300781 57.421875 46.085938 C 87.300781 27.875 105.898438 9.21875 121.519531 9.21875 C 137.140625 9.21875 150.488281 24.445312 185.617188 46.085938 C 215.496094 64.300781 234.9375 95.011719 234.9375 129.78125 Z M 234.9375 129.78125 "/>
    <path style=" stroke:none;fill-rule:nonzero;fill:rgb(96.470588%,87.058824%,80.784314%);fill-opacity:1;" d="M 234.9375 129.78125 C 234.921875 122.578125 234.046875 115.410156 232.34375 108.472656 C 223.496094 231.246094 91.867188 237.144531 40.117188 200.425781 C 63.382812 220.941406 92.089844 231.835938 121.519531 231.320312 C 184.0625 231.320312 234.9375 185.785156 234.9375 129.78125 Z M 234.9375 129.78125 "/>
    <path style=" stroke:none;fill-rule:nonzero;fill:rgb(100%,99.607843%,98.823529%);fill-opacity:1;" d="M 77.871094 39.339844 C 92.355469 29.460938 111.601562 10.914062 130.527344 10.875 C 127.617188 9.804688 124.578125 9.246094 121.519531 9.21875 C 113.675781 9.21875 105.316406 13.824219 94.785156 20.757812 C 91.121094 23.191406 87.332031 25.882812 83.3125 28.683594 C 75.761719 33.992188 67.109375 40.003906 57.390625 46.011719 C 26.539062 65.003906 8.101562 96.304688 8.101562 129.78125 L 8.101562 134.167969 C 27.738281 55.230469 63.417969 49.222656 77.871094 39.339844 Z M 77.871094 39.339844 "/>
    <path style=" stroke:none;fill-rule:nonzero;fill:rgb(80%,74.509804%,65.490196%);fill-opacity:1;" d="M 112.1875 18.546875 C 112.277344 36.164062 105.617188 52.949219 93.941406 64.523438 C 93.035156 65.445312 93.746094 67.214844 94.914062 66.699219 C 105.835938 61.867188 120.578125 47.414062 114.355469 18.25 C 114.097656 16.589844 112.1875 17.035156 112.1875 18.546875 Z M 119.542969 18.546875 C 127.566406 33.441406 129.472656 51.582031 124.757812 68.210938 C 124.371094 69.5 125.765625 70.605469 126.542969 69.535156 C 133.636719 59.214844 139.828125 38.714844 121.292969 16.589844 C 120.351562 15.632812 118.894531 17.109375 119.542969 18.398438 Z M 128.484375 17.917969 C 141.050781 28.039062 149.144531 43.851562 150.683594 61.277344 C 150.625 61.917969 151.011719 62.5 151.570312 62.609375 C 152.125 62.714844 152.660156 62.308594 152.789062 61.683594 C 155.769531 48.816406 154.085938 26.878906 129.554688 15.484375 C 128.257812 14.894531 127.417969 16.886719 128.484375 17.773438 Z M 68.664062 56.261719 C 83.605469 51.1875 95.9375 39.121094 102.59375 23.082031 C 103.179688 21.753906 105.023438 22.269531 104.734375 23.746094 C 99.128906 53.238281 80.363281 59.398438 68.699219 58.585938 C 67.46875 58.621094 67.5 56.667969 68.664062 56.261719 Z M 68.664062 56.261719 "/>
    <path style=" stroke:none;fill-rule:nonzero;fill:rgb(0%,0%,0%);fill-opacity:1;" d="M 121.519531 240.574219 C 54.503906 240.574219 0 190.875 0 129.78125 C 0 92.910156 20.027344 58.511719 53.566406 37.902344 C 63.285156 32.003906 71.617188 26.066406 79.035156 20.867188 C 83.117188 17.992188 86.976562 15.300781 90.703125 12.792969 C 102.074219 5.125 111.796875 0 121.519531 0 C 131.242188 0 139.730469 4.425781 150.359375 11.578125 C 153.601562 13.679688 156.839844 15.964844 160.308594 18.472656 C 168.378906 24.148438 177.484375 30.566406 189.472656 37.902344 C 223.011719 58.511719 243.039062 92.875 243.039062 129.78125 C 243.039062 190.875 188.53125 240.574219 121.519531 240.574219 Z M 121.519531 9.21875 C 113.675781 9.21875 105.316406 13.824219 94.785156 20.757812 C 91.121094 23.191406 87.332031 25.882812 83.3125 28.683594 C 75.761719 33.992188 67.109375 40.003906 57.390625 46.011719 C 26.539062 65.003906 8.101562 96.304688 8.101562 129.78125 C 8.101562 185.785156 58.976562 231.359375 121.519531 231.359375 C 184.0625 231.359375 234.9375 185.785156 234.9375 129.78125 C 234.9375 96.304688 216.496094 65 185.617188 46.085938 C 173.367188 38.714844 163.808594 31.78125 156.0625 26.324219 C 152.53125 23.855469 149.289062 21.570312 146.339844 19.542969 C 136.523438 12.90625 129.359375 9.21875 121.519531 9.21875 Z M 121.519531 9.21875 "/>
    <path style=" stroke:none;fill-rule:nonzero;fill:rgb(71.764706%,7.843137%,13.333333%);fill-opacity:1;" d="M 144.363281 156.695312 C 142.910156 163.480469 139.59375 169.5625 134.902344 174.0625 C 131.378906 177.949219 126.816406 180.386719 121.941406 180.996094 C 116.914062 180.484375 112.195312 178.039062 108.558594 174.0625 C 103.910156 169.542969 100.644531 163.460938 99.222656 156.695312 C 99.128906 155.882812 99.371094 155.0625 99.875 154.480469 C 100.382812 153.894531 101.101562 153.613281 101.816406 153.710938 L 141.804688 153.710938 C 142.515625 153.625 143.222656 153.914062 143.722656 154.496094 C 144.222656 155.078125 144.457031 155.890625 144.363281 156.695312 Z M 144.363281 156.695312 "/>
    <path style=" stroke:none;fill-rule:nonzero;fill:rgb(100%,38.039216%,39.215686%);fill-opacity:1;" d="M 108.558594 174.359375 C 112.1875 178.335938 116.890625 180.804688 121.90625 181.363281 C 126.914062 180.796875 131.605469 178.328125 135.226562 174.359375 C 136.386719 173.128906 137.46875 171.808594 138.46875 170.410156 C 134.433594 165.203125 128.6875 162.121094 122.589844 161.894531 C 116.035156 162.074219 109.976562 165.90625 106.386719 172.144531 C 107.132812 172.917969 107.777344 173.65625 108.558594 174.359375 Z M 108.558594 174.359375 "/>
    <path style=" stroke:none;fill-rule:nonzero;fill:rgb(0%,0%,0%);fill-opacity:1;" d="M 109.074219 171.445312 C 112.332031 166.660156 117.335938 163.832031 122.652344 163.777344 C 127.503906 163.9375 132.128906 166.160156 135.613281 170.007812 C 136.355469 169.085938 137.066406 168.140625 137.753906 167.167969 C 133.632812 162.699219 128.183594 160.160156 122.492188 160.050781 C 116.332031 160.113281 110.519531 163.304688 106.644531 168.753906 C 107.410156 169.699219 108.222656 170.597656 109.074219 171.445312 Z M 109.074219 171.445312 "/>
    <path style=" stroke:none;fill-rule:nonzero;fill:rgb(0%,0%,0%);fill-opacity:1;" d="M 121.808594 183.207031 C 116.410156 182.667969 111.328125 180.070312 107.390625 175.832031 C 102.375 171.003906 98.84375 164.480469 97.3125 157.210938 C 97.089844 155.902344 97.398438 154.546875 98.15625 153.527344 C 99.054688 152.289062 100.40625 151.59375 101.816406 151.644531 L 141.804688 151.644531 C 143.210938 151.613281 144.558594 152.304688 145.464844 153.527344 C 146.214844 154.550781 146.511719 155.90625 146.277344 157.210938 C 144.746094 164.480469 141.214844 171.003906 136.199219 175.832031 C 132.269531 180.0625 127.199219 182.660156 121.8125 183.207031 Z M 101.816406 155.921875 C 101.296875 155.921875 101.167969 156.179688 101.136719 156.253906 C 102.507812 162.558594 105.605469 168.199219 109.984375 172.367188 C 113.183594 175.953125 117.347656 178.226562 121.8125 178.820312 C 126.261719 178.234375 130.421875 175.992188 133.640625 172.441406 C 138.003906 168.269531 141.089844 162.625 142.453125 156.328125 C 142.308594 156.085938 142.058594 155.960938 141.804688 155.996094 Z M 101.816406 155.921875 "/>
    <path style=" stroke:none;fill-rule:nonzero;fill:rgb(99.607843%,73.333333%,81.568627%);fill-opacity:1;" d="M 189.796875 146.300781 C 189.796875 139.292969 181.308594 133.617188 170.839844 133.617188 C 160.371094 133.617188 151.882812 139.292969 151.882812 146.300781 C 151.882812 153.304688 160.371094 158.980469 170.839844 158.980469 C 181.308594 158.980469 189.796875 153.304688 189.796875 146.300781 Z M 189.796875 146.300781 "/>
    <path style=" stroke:none;fill-rule:nonzero;fill:rgb(99.607843%,73.333333%,81.568627%);fill-opacity:1;" d="M 91.707031 146.300781 C 91.707031 139.292969 83.21875 133.617188 72.75 133.617188 C 62.28125 133.617188 53.792969 139.292969 53.792969 146.300781 C 53.792969 153.304688 62.28125 158.980469 72.75 158.980469 C 83.21875 158.980469 91.707031 153.304688 91.707031 146.300781 Z M 91.707031 146.300781 "/>
    <path style=" stroke:none;fill-rule:nonzero;fill:rgb(0%,0%,0%);fill-opacity:1;" d="M 81.660156 141.210938 C 91.527344 141.230469 99.535156 132.144531 99.546875 120.917969 C 99.558594 109.695312 91.570312 100.585938 81.703125 100.578125 C 71.835938 100.574219 63.835938 109.671875 63.839844 120.894531 C 63.839844 132.101562 71.8125 141.191406 81.660156 141.210938 Z M 161.929688 141.210938 C 169.160156 141.269531 175.710938 136.355469 178.515625 128.769531 C 181.320312 121.183594 179.824219 112.421875 174.726562 106.582031 C 169.628906 100.742188 161.941406 98.976562 155.253906 102.113281 C 148.566406 105.25 144.203125 112.667969 144.203125 120.898438 C 144.183594 132.066406 152.109375 141.152344 161.929688 141.210938 Z M 161.929688 141.210938 "/>
    <path style=" stroke:none;fill-rule:nonzero;fill:rgb(100%,100%,100%);fill-opacity:1;" d="M 76.152344 122.1875 C 79.855469 122.207031 82.875 118.804688 82.890625 114.589844 C 82.910156 110.375 79.921875 106.941406 76.214844 106.921875 C 72.511719 106.902344 69.492188 110.300781 69.476562 114.515625 C 69.457031 118.730469 72.445312 122.164062 76.152344 122.1875 Z M 156.417969 122.1875 C 160.117188 122.164062 163.101562 118.742188 163.09375 114.535156 C 163.085938 110.328125 160.085938 106.921875 156.386719 106.921875 C 152.6875 106.921875 149.6875 110.328125 149.679688 114.535156 C 149.667969 118.742188 152.65625 122.164062 156.355469 122.1875 Z M 156.417969 122.1875 "/>
    </svg>

<svg xmlns="http://www.w3.org/2000/svg" xmlns:xlink="http://www.w3.org/1999/xlink"
    viewBox="0 0 80 80" xmlns:v="https://vecta.io/nano">
    <path
        d="M228.746 74.625l-1.617-1.844-1.621-1.844-1.621-1.844-1.621-1.844-1.617-1.844-1.621-1.844-1.621-1.84c16.074 17.973 25.281 42.422 25.633 68.059 0 61.094-54.508 110.793-121.52 110.793-37.527 0-71.098-15.594-93.426-40.039l3.242 3.688 1.617 1.84 1.621 1.848 1.621 1.84 3.242 3.688c22.293 25.48 56.613 41.887 95.043 41.887 67.016 0 121.52-49.703 121.52-110.609 0-26.031-9.852-50.695-27.254-70.09zm0 0"
        fill="rgb(0%,0%,0%)" />
    <path
        d="M234.938 129.781c0 56.078-50.781 101.539-113.418 101.539S8.102 185.859 8.102 129.781c0-34.77 19.441-65.48 49.32-83.695S105.898 9.219 121.52 9.219s28.969 15.227 64.098 36.867c29.879 18.215 49.32 48.926 49.32 83.695zm0 0"
        fill="rgb(98.431373%,94.117647%,87.45098%)" />
    <path
        d="M234.938 129.781c-.016-7.203-.891-14.371-2.594-21.309-8.848 122.773-140.477 128.672-192.227 91.953 23.266 20.516 51.973 31.41 81.402 30.895 62.543 0 113.418-45.535 113.418-101.539zm0 0"
        fill="rgb(96.470588%,87.058824%,80.784314%)" />
    <path
        d="M77.871 39.34c14.484-9.879 33.73-28.426 52.656-28.465a26.76 26.76 0 0 0-9.008-1.656c-7.844 0-16.203 4.605-26.734 11.539-3.664 2.434-7.453 5.125-11.473 7.926-7.551 5.309-16.203 11.32-25.922 17.328-30.852 18.992-49.289 50.293-49.289 83.77v4.387C27.738 55.23 63.418 49.223 77.871 39.34zm0 0"
        fill="rgb(100%,99.607843%,98.823529%)" />
    <path
        d="M112.188 18.547c.09 17.617-6.57 34.402-18.246 45.977-.906.922-.195 2.691.973 2.176 10.922-4.832 25.664-19.285 19.441-48.449-.258-1.66-2.168-1.215-2.168.297zm7.355 0c8.023 14.895 9.93 33.035 5.215 49.664-.387 1.289 1.008 2.395 1.785 1.324 7.094-10.32 13.285-30.82-5.25-52.945-.941-.957-2.398.52-1.75 1.809zm8.941-.629c12.566 10.121 20.66 25.934 22.199 43.359-.059.641.328 1.223.887 1.332s1.09-.301 1.219-.926c2.98-12.867 1.297-34.805-23.234-46.199-1.297-.59-2.137 1.402-1.07 2.289zm-59.82 38.344c14.941-5.074 27.273-17.141 33.93-33.18.586-1.328 2.43-.812 2.141.664-5.605 29.492-24.371 35.652-36.035 34.84-1.23.035-1.199-1.918-.035-2.324zm0 0"
        fill="rgb(80%,74.509804%,65.490196%)" />
    <path
        d="M121.52 240.574C54.504 240.574 0 190.875 0 129.781c0-36.871 20.027-71.27 53.566-91.879 9.719-5.898 18.051-11.836 25.469-17.035l11.668-8.074C102.074 5.125 111.797 0 121.52 0s18.211 4.426 28.84 11.578c3.242 2.102 6.48 4.387 9.949 6.895 8.07 5.676 17.176 12.094 29.164 19.43 33.539 20.609 53.566 54.973 53.566 91.879 0 61.094-54.508 110.793-121.52 110.793zm0-231.355c-7.844 0-16.203 4.605-26.734 11.539-3.664 2.434-7.453 5.125-11.473 7.926-7.551 5.309-16.203 11.32-25.922 17.328-30.852 18.992-49.289 50.293-49.289 83.77 0 56.004 50.875 101.578 113.418 101.578s113.418-45.574 113.418-101.578c0-33.477-18.441-64.781-49.32-83.695-12.25-7.371-21.809-14.305-29.555-19.762l-9.723-6.781c-9.816-6.637-16.98-10.324-24.82-10.324zm0 0"
        fill="rgb(0%,0%,0%)" />
    <path
        d="M144.363 156.695c-1.453 6.785-4.77 12.867-9.461 17.367-3.523 3.887-8.086 6.324-12.961 6.934-5.027-.512-9.746-2.957-13.383-6.934-4.648-4.52-7.914-10.602-9.336-17.367-.094-.812.148-1.633.652-2.215s1.227-.867 1.941-.77h39.988c.711-.086 1.418.203 1.918.785s.734 1.395.641 2.199zm0 0"
        fill="rgb(71.764706%,7.843137%,13.333333%)" />
    <path
        d="M108.559 174.359c3.629 3.977 8.332 6.445 13.348 7.004 5.008-.566 9.699-3.035 13.32-7.004a37.82 37.82 0 0 0 3.242-3.949c-4.035-5.207-9.781-8.289-15.879-8.516-6.555.18-12.613 4.012-16.203 10.25.746.773 1.391 1.512 2.172 2.215zm0 0"
        fill="rgb(100%,38.039216%,39.215686%)" />
    <g fill="rgb(0%,0%,0%)">
        <path
            d="M109.074 171.445c3.258-4.785 8.262-7.613 13.578-7.668 4.852.16 9.477 2.383 12.961 6.23a56.8 56.8 0 0 0 2.141-2.84c-4.121-4.469-9.57-7.008-15.262-7.117-6.16.063-11.973 3.254-15.848 8.703.766.945 1.578 1.844 2.43 2.691zm0 0" />
        <path
            d="M121.809 183.207c-5.398-.539-10.48-3.137-14.418-7.375-5.016-4.828-8.547-11.352-10.078-18.621-.223-1.309.086-2.664.844-3.684.898-1.238 2.25-1.934 3.66-1.883h39.988c1.406-.031 2.754.66 3.66 1.883.75 1.023 1.047 2.379.813 3.684-1.531 7.27-5.062 13.793-10.078 18.621-3.93 4.23-9 6.828-14.387 7.375zm-19.992-27.285c-.52 0-.648.258-.68.332 1.371 6.305 4.469 11.945 8.848 16.113 3.199 3.586 7.363 5.859 11.828 6.453 4.449-.586 8.609-2.828 11.828-6.379 4.363-4.172 7.449-9.816 8.813-16.113-.145-.242-.395-.367-.648-.332zm0 0" />
    </g>
    <g fill="rgb(99.607843%,73.333333%,81.568627%)">
        <use xlink:href="#B" />
        <use xlink:href="#B" x="-98.09" />
    </g>
    <path
        d="M81.66 141.211c9.867.02 17.875-9.066 17.887-20.293s-7.977-20.332-17.844-20.34-17.867 9.094-17.863 20.316c0 11.207 7.973 20.297 17.82 20.316zm80.27 0c7.23.059 13.781-4.855 16.586-12.441s1.309-16.348-3.789-22.187-12.785-7.605-19.473-4.469-11.051 10.555-11.051 18.785c-.02 11.168 7.906 20.254 17.727 20.313zm0 0"
        fill="rgb(0%,0%,0%)" />
    <path
        d="M76.152 122.188c3.703.02 6.723-3.383 6.738-7.598s-2.969-7.648-6.676-7.668-6.723 3.379-6.738 7.594 2.969 7.648 6.676 7.672zm80.266 0c3.699-.023 6.684-3.445 6.676-7.652s-3.008-7.613-6.707-7.613-6.699 3.406-6.707 7.613 2.977 7.629 6.676 7.652zm0 0"
        fill="rgb(100%,100%,100%)" />
    <defs>
        <path id="B"
            d="M189.797 146.301c0-7.008-8.488-12.684-18.957-12.684s-18.957 5.676-18.957 12.684 8.488 12.68 18.957 12.68 18.957-5.676 18.957-12.68zm0 0" />
    </defs>
</svg>
